Papirus/16x16/apps/godot.svg

<svg xmlns="http://www.w3.org/2000/svg" width="16" height="16" version="1">
 <path style="fill:#3888c3" d="m6.4-0.00014062-0.0656248 0.03828124-1.9343752 0.96185938 0.4 2-1.8414064 0.8421876-0.9585936-0.8421876-2 2 1 1.2382812v4.1460938l-1-0.319531v1.333594c1.6106667 2.460666 4.4 3.601562 8 3.601562s6.389333-1.140896 8-3.601562v-1.333594l-1 0.319531v-4.1460938l1-1.2382812-2-2-0.958594 0.8421876-1.841406-0.8421876 0.4-2-2-1.00014062-0.6843752 2.00014062h-1.8328124z"/>
 <path style="fill:#ffffff" d="m8 6c0.554 0 1 0.3345 1 0.7499995v1.5000005c0 0.4154995-0.446 0.75-1 0.75s-1-0.3345005-1-0.75v-1.5000005c0-0.4154995 0.446-0.7499995 1-0.7499995z"/>
 <path style="stroke:#ffffff;fill:none" d="m15.848175 9.1756952-0.848175 0.2919708v1.088255l-1.5 0.530856v-1.114798l-2 0.291971v1.088255l-2 0.347445v-1.2h-1.5m-7.8481752-1.3239548 0.8481752 0.2919708v1.088255l1.5 0.530856v-1.114798l2 0.291971v1.088255l2 0.347445v-1.2h1.5"/>
 <path style="fill:#ffffff" d="m3.5 6c0.8286 0 1.5 0.6714 1.5 1.5s-0.6714 1.5-1.5 1.5-1.5-0.6714-1.5-1.5 0.6714-1.5 1.5-1.5z"/>
 <rect style="fill:#353535" width="1" height="1" x="3" y="7"/>
 <g transform="translate(9)">
  <path style="fill:#ffffff" d="m3.5 6c0.8286 0 1.5 0.6714 1.5 1.5s-0.6714 1.5-1.5 1.5-1.5-0.6714-1.5-1.5 0.6714-1.5 1.5-1.5z"/>
  <rect style="fill:#353535" width="1" height="1" x="3" y="7"/>
 </g>
</svg>

<svg xmlns="http://www.w3.org/2000/svg" width="16" height="16" version="1">
 <path style="fill:#3888c3" d="M 6.4,-1.4062e-4 6.3343752,0.03814062 4.4,1 4.8,3 2.9585936,3.8421876 2,3 0,5 1,6.2382812 1,10.384375 1,10.064844 1,11.398438 C 1,11.398438 2.6033898,15 8,15 c 5.39661,0 7,-3.601562 7,-3.601562 l 0,-1.333594 0,0.319531 L 15,6.2382812 16,5 14,3 13.041406,3.8421876 11.2,3 11.6,1 9.6,-1.4062e-4 8.9156248,2 7.0828124,2 Z"/>
 <path style="fill:#ffffff" d="m8 6c0.554 0 1 0.3345 1 0.7499995v1.5000005c0 0.4154995-0.446 0.75-1 0.75s-1-0.3345005-1-0.75v-1.5000005c0-0.4154995 0.446-0.7499995 1-0.7499995z"/>
 <path style="fill:#ffffff" d="m3.5 6c0.8286 0 1.5 0.6714 1.5 1.5s-0.6714 1.5-1.5 1.5-1.5-0.6714-1.5-1.5 0.6714-1.5 1.5-1.5z"/>
 <rect style="fill:#353535" width="1" height="1" x="3" y="7"/>
 <g transform="translate(9)">
  <path style="fill:#ffffff" d="m3.5 6c0.8286 0 1.5 0.6714 1.5 1.5s-0.6714 1.5-1.5 1.5-1.5-0.6714-1.5-1.5 0.6714-1.5 1.5-1.5z"/>
  <rect style="fill:#353535" width="1" height="1" x="3" y="7"/>
 </g>
 <path style="fill:none;stroke:#ffffff;stroke-width:0.7;stroke-linejoin:round" d="m 15,10.35 -2.65,0 0,1.3 -2.7,0 0,-1.3 -1.65,0 m -7,0 2.65,0 0,1.3 2.7,0 0,-1.3 1.65,0"/>
</svg>
